usr/share/icons/biglinux-icons-material/symbolic/status/budgie-trash-restore-symbolic.svg

<svg width="16" height="16" version="1.1" viewBox="0 0 16 16" xmlns="http://www.w3.org/2000/svg">
 <path d="m7.5117 5 3.4883 4h-2v4h-3v-4h-2z" color="#363636" fill="currentColor"/>
 <path class="ColorScheme-Text" d="m6 0c-0.554 0-1 0.446-1 1v1h-4.5c-0.277 0-0.5 0.223-0.5 0.5s0.223 0.5 0.5 0.5h0.49805l0.54688 11.061c0.0612 1.0155 0.90615 1.9395 1.998 1.9395h7.9141c1.0919 0 1.9368-0.92391 1.998-1.9395l0.54688-11.061h0.49805c0.277 0 0.5-0.223 0.5-0.5s-0.223-0.5-0.5-0.5h-4.5v-1c0-0.554-0.446-1-1-1h-3zm0 1h3v1h-3zm-4 2h11l-0.54297 11c-0.03333 0.553-0.446 1-1 1h-7.9141c-0.554 0-0.96667-0.447-1-1l-0.54297-11z" color="#363636" fill="currentColor"/>
</svg>

<svg xmlns="http://www.w3.org/2000/svg" width="16" height="16"><path fill="currentColor" d="M6 0c-.554 0-1 .446-1 1v1H.5a.499.499 0 1 0 0 1h.498l.547 11.061c.061 1.016.906 1.94 1.998 1.94h7.914c1.092 0 1.937-.924 1.998-1.94L14.002 3h.498a.499.499 0 1 0 0-1H10V1c0-.554-.446-1-1-1H6zm0 1h3v1H6V1zm1.512 4L11 9H9v4H6V9H4l3.512-4z" color="#dedede"/></svg>
